lg/node-sass.svg

<svg viewBox="0 0 256 293" version="1.1" xmlns="http://www.w3.org/2000/svg" preserveAspectRatio="xMidYMid" height="1em" width="1em">
  <g>
    <path d="M78.67,179.0285 C74.02,181.9365 67.014,186.6475 61.594,191.7715 C52.696,200.1745 50.834,211.8305 55.528,214.5535 C59.87,217.0705 70.007,214.0755 77.262,206.1625 C84.876,197.8545 88.016,187.3225 84.773,175.3665 C84.392,175.5935 84.018,175.8215 83.651,176.0335 L83.659,176.0495 L83.167,176.3285 C81.274,177.4585 79.727,178.3905 78.67,179.0285 L78.67,179.0285 Z M209.341,175.2565 C206.707,180.9805 206.575,182.8225 207.375,183.3955 C211.197,182.0225 217.52,178.7135 217.57,169.8465 C217.578,168.5185 217.285,167.0935 216.815,165.6045 C212.729,169.2225 210.374,173.0105 209.341,175.2565 L209.341,175.2565 Z M250.351,157.9495 C240.141,156.7595 232.174,158.1915 225.991,160.7675 C227.136,163.7475 228.016,166.8515 228.14,169.9785 C228.427,176.8415 223.703,181.9205 218.78,185.5465 C215.905,187.6605 212.846,189.0695 210.278,189.9205 C208.225,190.7865 205.496,191.6815 203.559,191.2865 C199.289,190.4185 197.016,186.6255 199.921,178.2585 C201.49,173.7305 206.016,166.8375 213.322,160.9005 C211.657,157.4725 209.801,153.9795 208.855,150.7705 C206.991,144.4445 206.428,140.6205 206.428,140.6205 C206.428,140.6205 200.406,153.1055 192.637,164.4595 C192.189,165.1195 191.742,165.7665 191.294,166.4115 C192.82,169.9575 194.022,173.7075 194.185,177.4885 C194.471,184.3505 191.5,189.5395 186.57,193.1575 C183.901,195.1255 181.054,196.4845 178.611,197.3495 C177.049,198.0315 173.872,199.1535 169.354,199.4555 C166.883,199.6245 164.506,199.4715 163.179,198.4655 C161.352,197.0855 161.132,195.3825 162.078,193.0555 C162.878,191.0805 168.863,184.2485 173.881,178.2665 C175.267,176.6145 176.587,174.9265 177.768,173.3635 L177.739,173.2965 C177.739,173.2975 178.648,172.1235 180.123,170.0755 C178.289,166.1265 175.964,162.0155 174.871,158.2875 C173.007,151.9615 172.443,148.1365 172.443,148.1365 C172.443,148.1365 166.339,163.7855 159.98,176.2775 C155.059,185.9525 151.772,191.8155 150.291,194.3845 L150.276,194.4875 C150.276,194.4875 150.055,194.8625 149.674,195.4495 L149.389,195.9255 L149.381,195.8815 C147.73,198.3195 144.026,203.0965 140.344,203.0965 C130.236,203.0965 133.947,182.5675 133.947,182.5675 C133.947,182.5675 130.992,190.1715 127.661,196.6965 C124.948,202.0175 122.476,206.5255 117.07,206.5255 C115.515,206.5255 113.05,206.4805 111.003,204.5345 C106.36,200.1235 102.81,188.9225 103.506,180.2475 C104.1,172.8715 105.237,167.7625 106.792,163.4995 C104.019,165.0105 100.814,166.8025 97.55,168.7185 L92.532,171.6755 L92.694,171.9695 C96.845,179.9995 97.953,197.5925 88.901,211.0975 C79.85,224.6095 63.001,232.8305 46.585,228.2655 C41.288,226.7895 33.286,215.8315 40.188,200.5575 C46.276,187.0885 70.607,174.3545 77.019,171.1765 L78.779,170.2075 C65.995,159.0215 34.071,143.9315 29.597,120.7525 C28.335,114.2275 31.394,98.6235 50.553,80.6855 C66.668,65.6025 89.085,54.0495 109.793,46.6875 C144.583,34.3205 181.341,41.6155 186.996,63.7965 C192.556,85.6105 173.632,111.7035 149.396,121.0835 C127.757,129.4575 109.866,128.1295 102.516,125.7155 C94.161,122.9705 89.261,117.4575 88.066,114.3455 C87.596,113.1275 86.788,111.0805 88.066,110.3755 C88.85,109.9425 89.165,110.0455 91.263,112.3645 C93.259,114.5665 101.283,120.4755 116.526,118.7645 C156.526,114.2805 180.621,83.1815 173.007,66.4465 C167.675,54.7325 136.845,49.4475 98.327,68.6555 C51.308,92.0985 48.756,111.4245 48.353,118.7645 C47.252,138.9555 73.255,149.5765 87.325,164.5925 L87.867,165.1875 C90.5,163.7345 93.281,162.2005 96.009,160.7035 C103.103,156.8055 109.793,153.1495 112.91,151.4465 C117.862,144.2485 127.91,136.3055 135.165,136.3055 C146.762,136.3055 142.779,152.9745 142.779,152.9745 C142.779,152.9745 143.014,152.2115 143.329,152.2045 C143.659,152.1955 144.936,150.0085 148.516,151.3145 C152.198,152.6655 151.361,155.2495 151.384,155.5135 C151.428,156.0265 147.034,170.8455 145.208,180.3505 C144.334,184.8865 144.84,188.1905 145.098,188.1905 C145.457,188.1905 146.191,187.0375 146.873,185.7975 L146.858,185.7605 C146.858,185.7605 147.371,184.8215 148.23,183.1335 L148.399,182.7805 L148.406,182.7965 C149.419,180.8145 150.841,177.9005 152.484,174.2895 C155.704,167.1925 167.99,139.7925 169.032,136.7615 C170.073,133.7305 170.616,130.5965 171.13,129.2525 C171.636,127.9095 175.979,126.8965 181.054,126.9335 C186.13,126.9705 186.645,129.1355 186.68,129.5835 C186.717,130.0305 184.267,136.0425 183.702,140.2915 C183.145,144.5415 183.681,146.6615 184.143,150.2295 C184.444,152.5625 185.903,155.5215 187.628,158.8755 C192.88,150.2875 202.121,133.8615 203.009,129.2595 C203.617,126.1115 204.593,123.0945 205.107,121.7505 C205.62,120.4075 209.956,119.3955 215.031,119.4315 C220.107,119.4685 220.62,121.6335 220.657,122.0815 C220.694,122.5295 218.236,128.5405 217.679,132.7905 C217.121,137.0325 217.658,139.1615 218.119,142.7285 C218.516,145.7815 220.877,149.8845 223.218,154.5515 C229.606,151.4025 237.125,149.2895 245.928,149.2455 C249.573,149.2245 253.806,149.5905 255.992,150.2725 L255.992,80.0535 C255.992,75.0995 253.453,70.5345 249.163,68.0615 L134.616,1.8555 C130.333,-0.6185 125.088,-0.6185 120.804,1.8555 L6.573,68.0295 C2.289,70.5035 0,75.0765 0,80.0225 L0,212.4915 C0,217.4375 2.303,222.0105 6.58,224.4835 L120.995,290.7095 C125.278,293.1915 130.472,293.1915 134.755,290.7095 L249.222,224.4835 C253.505,222.0025 256,217.4365 256,212.4915 L256,158.9555 C254.547,158.5275 252.42,158.1905 250.351,157.9495 L250.351,157.9495 Z M127.119,151.0125 C124.662,153.7645 120.474,160.8615 118.515,166.8015 C114.62,178.5955 116.307,190.5815 119.065,191.3015 C122.285,192.1445 127.567,176.3795 130.096,170.2135 C131.681,166.3525 137.843,149.2155 136.493,146.9255 C135.439,145.1345 131.073,146.5805 127.119,151.0125 L127.119,151.0125 Z M171.682,190.7645 C171.682,190.7645 170.905,191.4995 171.241,191.7045 C171.696,191.9765 172.679,191.6235 173.75,191.0655 C176.78,189.1585 183.579,184.4015 183.594,177.3625 C183.594,177.1575 183.586,176.9595 183.572,176.7465 C181.995,178.8165 180.542,180.6585 179.288,182.2215 C177.146,184.8855 171.682,190.7645 171.682,190.7645 L171.682,190.7645 Z" fill="#8CC84B"/>
  </g>
</svg>

<svg viewBox="0 0 256 293" xmlns="http://www.w3.org/2000/svg" preserveAspectRatio="xMidYMid" height="1em" width="1em">
  <path d="M78.67 179.029c-4.65 2.907-11.656 7.619-17.076 12.743-8.898 8.403-10.76 20.059-6.066 22.782 4.342 2.517 14.479-.478 21.734-8.392 7.614-8.308 10.754-18.84 7.511-30.796-.381.227-.755.455-1.122.667l.008.017-.492.278c-1.893 1.13-3.44 2.063-4.497 2.7Zm130.671-3.773c-2.634 5.725-2.766 7.566-1.966 8.14 3.822-1.373 10.145-4.682 10.195-13.55.008-1.328-.285-2.752-.755-4.242-4.086 3.618-6.441 7.406-7.474 9.652Zm41.01-17.306c-10.21-1.19-18.177.242-24.36 2.818 1.145 2.98 2.025 6.083 2.149 9.21.287 6.863-4.437 11.942-9.36 15.569-2.875 2.114-5.934 3.523-8.502 4.374-2.053.865-4.782 1.76-6.719 1.365-4.27-.868-6.543-4.66-3.638-13.028 1.569-4.528 6.095-11.42 13.401-17.358-1.665-3.428-3.521-6.92-4.467-10.13-1.864-6.326-2.427-10.15-2.427-10.15s-6.022 12.486-13.791 23.84c-.448.66-.895 1.306-1.343 1.951 1.526 3.547 2.728 7.297 2.891 11.077.286 6.863-2.685 12.052-7.615 15.67-2.669 1.968-5.516 3.327-7.959 4.192-1.562.681-4.739 1.804-9.257 2.106-2.471.169-4.848.016-6.175-.99-1.827-1.38-2.047-3.084-1.101-5.41.8-1.976 6.785-8.808 11.803-14.79a123.815 123.815 0 0 0 3.887-4.903l-.029-.066s.909-1.173 2.384-3.221c-1.834-3.95-4.159-8.06-5.252-11.788-1.864-6.327-2.428-10.151-2.428-10.151s-6.104 15.649-12.463 28.14c-4.921 9.675-8.208 15.538-9.689 18.108l-.015.103s-.221.375-.602.962l-.285.476-.008-.044c-1.651 2.438-5.355 7.214-9.037 7.214-10.108 0-6.397-20.529-6.397-20.529s-2.955 7.605-6.286 14.13c-2.713 5.32-5.185 9.828-10.591 9.828-1.555 0-4.02-.044-6.067-1.99-4.643-4.411-8.193-15.612-7.497-24.287.594-7.376 1.731-12.486 3.286-16.748a336.981 336.981 0 0 0-9.242 5.219l-5.018 2.957.162.294c4.151 8.03 5.259 25.623-3.793 39.127-9.051 13.512-25.9 21.733-42.316 17.168-5.297-1.475-13.299-12.433-6.397-27.707 6.088-13.47 30.419-26.203 36.831-29.381l1.76-.97c-12.784-11.185-44.708-26.275-49.182-49.454-1.262-6.525 1.797-22.13 20.956-40.067 16.115-15.084 38.532-26.637 59.24-33.999 34.79-12.366 71.548-5.072 77.203 17.11 5.56 21.814-13.364 47.907-37.6 57.287-21.639 8.374-39.53 7.046-46.88 4.632-8.355-2.745-13.255-8.258-14.45-11.37-.47-1.219-1.278-3.266 0-3.97.784-.434 1.099-.33 3.197 1.989 1.996 2.202 10.02 8.11 25.263 6.4 40-4.484 64.095-35.584 56.481-52.319-5.332-11.713-36.162-16.998-74.68 2.21-47.019 23.442-49.571 42.768-49.974 50.108-1.101 20.192 24.902 30.813 38.972 45.829l.542.595c2.633-1.453 5.414-2.987 8.142-4.484a8176.293 8176.293 0 0 1 16.901-9.258c4.952-7.197 15-15.14 22.255-15.14 11.597 0 7.614 16.668 7.614 16.668s.235-.762.55-.77c.33-.008 1.607-2.196 5.187-.89 3.682 1.352 2.845 3.936 2.868 4.2.044.512-4.35 15.331-6.176 24.837-.874 4.536-.368 7.84-.11 7.84.359 0 1.093-1.154 1.775-2.393l-.015-.037s.513-.94 1.372-2.627l.169-.353.007.016a213.875 213.875 0 0 0 4.078-8.507c3.22-7.097 15.506-34.498 16.548-37.528 1.041-3.031 1.584-6.166 2.098-7.51.506-1.343 4.849-2.356 9.924-2.319 5.076.037 5.591 2.203 5.626 2.65.037.447-2.413 6.46-2.978 10.709-.557 4.25-.021 6.37.441 9.938.301 2.333 1.76 5.292 3.485 8.645 5.252-8.588 14.493-25.013 15.381-29.615.608-3.148 1.584-6.165 2.098-7.51.513-1.343 4.849-2.355 9.924-2.319 5.076.038 5.589 2.203 5.626 2.65.037.448-2.421 6.46-2.978 10.71-.558 4.242-.021 6.37.44 9.938.397 3.052 2.758 7.155 5.099 11.822 6.388-3.148 13.907-5.261 22.71-5.305 3.645-.022 7.878.344 10.064 1.026V80.055c0-4.954-2.539-9.52-6.829-11.993L134.616 1.855a13.78 13.78 0 0 0-13.812 0L6.573 68.03C2.289 70.504 0 75.076 0 80.022v132.47c0 4.946 2.303 9.519 6.58 11.992l114.415 66.225a13.645 13.645 0 0 0 13.76 0l114.467-66.226c4.283-2.48 6.778-7.047 6.778-11.992v-53.536c-1.453-.428-3.58-.765-5.649-1.006Zm-123.232-6.938c-2.457 2.752-6.645 9.85-8.604 15.79-3.895 11.793-2.208 23.78.55 24.5 3.22.843 8.502-14.922 11.031-21.088 1.585-3.862 7.747-20.999 6.397-23.288-1.054-1.791-5.42-.345-9.374 4.087Zm44.563 39.752s-.777.736-.441.94c.455.272 1.438-.08 2.509-.639 3.03-1.906 9.829-6.663 9.844-13.702 0-.206-.008-.404-.022-.617a276.359 276.359 0 0 1-4.284 5.475c-2.142 2.665-7.606 8.543-7.606 8.543Z" fill="#8CC84B"/>
</svg>
